!!!COM: Anon.
!!!OTL: Ave Maris Stella
!!!SCA: Folio 221-221'
!!!YOR: from 'Thirty-Five Conductus for Two and Three Voices', pp.25-28
!!!YOR: edited by Janet Knapp, Collegium Musicum No. 6, Yale University (1965)
!!!YOR: from the School of Notre Dame; circa 1170-1240
!!!YOO: Yale University
!!!YOY: 1965
**kern	**kern	**kern
*M6/8	*M6/8	*M6/8
=1	=1	=1
4G	4d	4g
8A	8e	8g
4B-	8f	8f
.	8e	8e
8A	8f	8f
=2	=2	=2
4.G	4g	8d
.	.	8c
.	8f	8d
4.A	4e	4e
.	8r	8r
=3	=3	=3
4.F	4f	4.f
.	8e	.
4G	8d	4g
.	8e	.
8A	8d	8g
=4	=4	=4
4B-	4B-	8f
.	.	8e
8A	8c	8f
4G	4d	4d
8r	8r	8r
=5	=5	=5
4A	4e	4e
8B-	8d	8f
4c	4c	8g
.	.	8f
8c	8d	8e
=6	=6	=6
4B-	8f	4d
.	8e	.
8B-	8d	8f
4A	4e	8e
.	.	8d
8r	8f	8c
=7	=7	=7
8G	4g	4d
8A	.	.
8G	8r	8e
4F	8f	4f
.	8e	.
8r	8f	8r
=8	=8	=8
4G	8d	8g
.	8c	16g
.	.	16f
8B-	8d	8e
4A	4e	4d
8G	8d	8e
=9	=9	=9
4.F	4.f	4.c
4G	4d	4d
8r	8r	8r
=10	=10	=10
4.G	8d	8g
.	8d	8g
.	8c	8f
8d	8B-	4e
8d	8A	.
8e	8G	8d
=11	=11	=11
4.c	4.A	4.e
8d	4.G	4d
8d	.	.
8e	.	8r
=12	=12	=12
4f	4F	8c
.	.	8d
8g	8G	8c
4f	4B-	4B-
8e	8c	8A
=13	=13	=13
4d	4d	4G
8r	8B-	8r
4c	4c	4c
8d	8r	8d
=14	=14	=14
4B-	4B-	8f
.	.	8e
8A	8c	8f
4.G	8d	4d
.	8e	.
.	8d	8r
=15	=15	=15
4.A	4.c	4e
.	.	8f
4G	4d	4g
8r	8r	8r
=16	=16	=16
4.B-	8f	4.f
.	8f	.
.	8e	.
4.c	4.c	4.g
=17	=17	=17
4d	4B-	4f
8c	8c	8e
8B-	8d	4.d
8B-	8d	.
8A	8c	.
=18	=18	=18
4.G	4.B-	4.e
4F	4c	4f
8r	8r	8r
=19	=19	=19
4G	4d	4g
8A	8c	8f
4B-	4B-	8e
.	.	8d
8r	8r	8c
=20	=20	=20
8A	4c	4e
8G	.	.
8A	8d	8d
4F	8f	4c
.	8e	.
8A	8d	8r
=21	=21	=21
4c	4c	4c
8r	8d	8d
4d	4B-	4f
8c	8c	8f
=22	=22	=22
4B-	4d	4f
8A	8c	8e
4G	4B-	8d
.	.	8e
8F	8A	8c
=23	=23	=23
4.G	4.G	4.d
4.r	4.r	4.r
=24	=24	=24
4.d	4B-	4.f
.	8A	.
4c	8c	8g
.	8B-	8f
8r	8A	8g
=25	=25	=25
4d	4G	4e
8d	8A	8d
4B-	4B-	4f
8r	8r	8r
=26	=26	=26
4.c	4c	4g
.	8d	8g
4B-	4f	4f
8r	8e	8c
=27	=27	=27
4d	4d	4d
8d	8B-	8e
4c	4c	4g
8B-	8r	8r
=28	=28	=28
4d	4B-	4f
8d	8c	8e
4B-	4d	4d
8r	8e	8B-
=29	=29	=29
4c	4c	4c
8c	8d	8r
4B-	4f	4B-
8A	8r	8c
=30	=30	=30
4.G	4g	4d
.	8f	8r
4.A	8e	4e
.	8d	.
.	8c	8f
=31	=31	=31
4G	4d	8g
.	.	8f
8r	8d	8e
8B-	4G	4d
8A	.	.
8G	8A	8c
=32	=32	=32
4F	4c	4f
8G	8B-	8g
4B-	4B-	8f
.	.	8e
8c	8A	8f
=33	=33	=33
4d	4G	4d
8r	8r	8r
4f	[4.B-	[4.f
8e	.	.
=34	=34	=34
4.c	4B-]	4f]
.	8c	8g
4B-	4d	8f
.	.	8e
8c	8c	8d
=35	=35	=35
4B-	4.B-	4.d
8A	.	.
4.G	4.c	4.c
=36	=36	=36
2.F	4.B-	8f
.	.	8e
.	.	8d
.	4B-	4.c
.	8A	.
=37	=37	=37
4.G	4.G	4.d
4.r	4.r	4.r
=38	=38	=38
4A	4A	4e
8G	8c	8f
4B	4B	4d
8d	8G	8c
=39	=39	=39
4c	4.A	4e
8B	.	8f
4d	4G	4g
8r	8r	8r
=40	=40	=40
4G	4d	4d
8A	8d	8e
4c	4c	8f
.	.	8e
8A	8c	8f
=41	=41	=41
4G	4d	4g
8F	8d	8f
4.A	4c	4e
.	8A	8r
=42	=42	=42
4G	4d	8d
.	.	8e
8A	8d	8f
4B	4c	8e
.	.	8d
8A	8c	8e
=43	=43	=43
4.G	4.d	4.d
4.r	4.r	4.r
=44	=44	=44
4c	4c	4c
16B	8c	8d
16A	.	.
4G	4B	4e
8B	8B	8d
=45	=45	=45
4d	4A	4f
8c	8A	8e
4d	4G	4d
8r	8r	8r
=46	=46	=46
4e	8c	4e
.	8B	.
8f	8A	8c
8g	4G	4d
8f	.	.
8e	8B	8d
=47	=47	=47
4.d	4d	8c
.	.	8B
.	8c	8A
4d	4d	4G
8r	8r	8r
=48	=48	=48
4B	4f	4B
8c	8e	8A
8d	4d	4G
8c	.	.
8B	8r	8A
=49	=49	=49
4.A	4c	4.c
.	8d	.
4A	4e	4A
8F	8f	8r
=50	=50	=50
4A	4.d	4e
8A	.	8f
4.B	4d	4d
.	8r	8c
=51	=51	=51
4.G	8g	4d
.	8f	.
.	8e	8e
4G	4.d	4g
8r	.	8f
=52	=52	=52
4.G	4c	4.e
.	8B	.
8A	8A	4.d
8A	8A	.
8G	8B	.
=53	=53	=53
4.F	4.c	4.f
4.r	4.r	4.r
=54	=54	=54
4G	4d	4g
8A	8d	8g
4.B	4.B	8f#
.	.	16g
.	.	16f#
.	.	8e
=55	=55	=55
4B	4d	8d
.	.	8e
8A	8c	8f#
4.c	8B	4g
.	8A	.
.	8G	8r
=56	=56	=56
4d	4G	4g
8c	8A	8g
4B	4B	8f#
.	.	16g
.	.	16f#
8A	8c	8e
=57	=57	=57
4B	4B	8d
.	.	16c
.	.	16B
8c	8A	8A
4B	8B	4.G
.	8A	.
8B	8G	.
=58	=58	=58
4B	4G	16B
.	.	16A
.	.	8B
8A	8F	8c
4G	4G	4d
8r	8r	8r
=59	=59	=59
4d	4G	4g
8d	8A	8e
4.B	4.B	4f#
.	.	8d
=60	=60	=60
4d	4B	8d
.	.	8e
8c	8A	8f#
8B	4.c	4g
8A	.	.
8G	.	8r
=61	=61	=61
4G	4d	4g
8A	8c	8e
4B	4B	4f#
8c	8A	8d
=62	=62	=62
4B	4B	4d
8A	8c	8e
8B	4B	4f#
8A	.	.
8G	8B	8r
=63	=63	=63
4G	4B	16e
.	.	16d
.	.	8d
8F	8A	8c
4G	4G	4d
8r	8r	8r
=64	=64	=64
4.B	4B	4f#
.	8A	8e
4.d	4G	4.g
.	8A	.
=65	=65	=65
8e	4.c	4.e
8d	.	.
8c	.	.
8B	4d	8f#
8A	.	8f#
8G	8e	8e
=66	=66	=66
4G	4d	4d
8A	8c	8e
4B	4B	4f#
8r	8r	8r
=67	=67	=67
4.d	8c	8f#
.	8B	8f#
.	8A	8e
8d	4G	4d
8e	.	.
8f	8F	8c
=68	=68	=68
8e	4.G	8e
8d	.	8d
8c	.	8e
4B	4A	8f#
.	.	8f#
8A	8B	8e
=69	=69	=69
4G	4.c	4d
8F	.	8c
4A	4A	4e
8r	8r	8r
=70	=70	=70
4.c	4G	4g
.	8A	8g
4.B	4B	8f
.	.	8e
.	8A	8d
=71	=71	=71
4.A	4.c	4e
.	.	8f
4G	4d	4g
8r	8r	8r
=72	=72	=72
4c	4c	4f
8d	8B	16e
.	.	16d
4e	4A	4c
8c	16B	16d
.	16A	16e
=73	=73	=73
4d	4G	4g
8d	8B	16f
.	.	16e
4G	4d	4d
8r	8r	8r
=74	=74	=74
4G	4c	4g
8G	8d	8g
4A	4e	8f
.	.	8e
8A	8c	8f
=75	=75	=75
4G	4d	4g
8F	8d	8g
4G	4G	8f
.	.	8e
8r	8B	8d
=76	=76	=76
4G	4d	4g
8A	8c	8g
4c	8c	8f
.	8B	8e
8c	8A	8f
=77	=77	=77
4.d	4G	4.g
.	8A	.
4d	4G	4g
8r	8r	8r
=78	=78	=78
4e	8c	4e
.	8B	.
8f	8A	8c
4g	4G	4d
8c	8A	8e
=79	=79	=79
4d	4G	4g
8d	8F	8f
4c	4A	4e
8r	8r	8r
=80	=80	=80
4.B-	4.B-	4f
.	.	8c
4.A	4.c	4e
.	.	8c
=81	=81	=81
4.G	4d	4d
.	8B	8d
4F	4c	4c
8r	8r	8r
=82	=82	=82
8B	8f	8B
8c	8e	8A
8d	8d	8G
4c	4c	4F
8B	8d	8G
=83	=83	=83
4A	4c	4c
8G	8B	8d
4.F	4.A	8e
.	.	8f
.	.	8e
=84	=84	=84
4.G	4.G	4.d
4.r	4.r	4.r
=85	=85	=85
4B	4f	4f
8A	8e	8e
4G	4d	4g
8G	8d	8f
=86	=86	=86
4A	4c	4e
8G	8B-	8d
4F	8c	4f
.	8d	.
8A	8e	8r
=87	=87	=87
4c	4c	4g
8c	8f	8g
8d	8d	4f
8c	8c	.
8B-	8d	8g
=88	=88	=88
4.A	4.e	4.e
4A	4e	4e
8r	8r	8r
=89	=89	=89
4B-	4f	4f
8A	8e	8e
4G	4g	4d
8G	8f	8d
=90	=90	=90
4A	4.e	4c
8G	.	8B
4F	8f	4c
.	8e	.
8A	8d	8e
=91	=91	=91
4c	4c	4g
8c	8c	8g
16d	4B	8f
16c	.	.
8B	.	8e
8A	8c	8f
=92	=92	=92
4.G	4.d	8g
.	.	8f
.	.	8e
4G	4d	4d
8r	8r	8r
=93	=93	=93
4A	4e	4e
8B-	8e	8f
8c	4c	4g
8B-	.	.
8A	8e	8c
=94	=94	=94
4G	8g	4d
.	8f	.
8A	8e	8e
4B-	4d	4f
8r	8e	8r
=95	=95	=95
4.c	4c	4g
.	8d	8g
4d	4B-	8f
.	.	8e
8B-	8c	8d
=96	=96	=96
4.c	4A	4e
.	8B-	8f
4d	4G	4g
8r	8r	8r
=97	=97	=97
8f	4B-	4.f
8e	.	.
8d	8A	.
4c	8c	8g
.	8B-	8e
8e	8A	8f
=98	=98	=98
8g	4G	4d
8f	.	.
8e	8B-	8c
4d	4d	8f
.	.	8e
8B-	8d	8f
=99	=99	=99
4d	4r	4d
8e	8c	8r
4c	4r	4e
8A	8e	8r
=100	=100	=100
4c	4r	4c
8d	8d	8r
4B-	4r	4d
8G	8B-	8r
=101	=101	=101
4B-	4r	4B-
8c	8c	8r
4A	8d	4d
.	8c	.
8F	8B-	8f
=102	=102	=102
4A	8A	4e
.	8B-	.
8B-	8c	8f
4.G	4.d	8g
.	.	8f
.	.	8e
=103	=103	=103
4.G	4.d	4.d
4.r	4.r	4.r
=104	=104	=104
4F	8f	8f
.	8e	8e
8A	8d	8f
4c	4.c	4g
8c	.	8g
=105	=105	=105
4B-	4d	8f
.	.	8e
8A	8r	8f
4c	8c	4g
.	8d	.
8c	8e	8r
=106	=106	=106
4B-	4f	4f
8c	8e	8e
4d	4d	8c
.	.	8d
8c	8r	8e
=107	=107	=107
8B-	4.B-	4f
8A	.	.
8G	.	8r
4F	4c	8f
.	.	8e
8r	8r	8f
=108	=108	=108
4G	8d	8d
.	8e	8e
8A	8d	8d
4B-	8c	8e
.	8B-	8f
8A	8c	8e
=109	=109	=109
4G	8d	4d
.	8d	.
8r	8e	8r
[4.F	16f	8c
.	16e	.
.	8d	8d
.	8c	8e
=110	=110	=110
2.F_	8B-	8f
.	8A	16f
.	.	16e
.	8G	8d
.	4F	4c
.	8r	8r
=111	=111	=111
2.F_	8c	4f
.	8d	.
.	8e	8e
.	4.f	4d
.	.	8e
=112	=112	=112
4.F]	4f	4.f
.	8e	.
[4.G	4.e	4.f
=113	=113	=113
4.G]	4.d	4.g
4.r	4.r	4.r
==	==	==
*-	*-	*-
!!!ENC: David Huron
!!!YEC: Copyright 1987, David Huron
!!!EEV: 1.0
